assets/capacitor/original.svg

<svg viewBox="0 0 128 128" xmlns="http://www.w3.org/2000/svg"><path d="m19.93 27.059-19.774 19.8 30.496 30.59-30.652 30.742 19.715 19.813 30.715-30.754 30.547 30.531 19.777-19.8zm0 0" fill="#53b9ff"/><path d="m70.258 77.45-19.828 19.8 30.547 30.531 19.777-19.8zm0 0" fill="#119eff"/><path d="m70.258 77.45-19.828 19.8 7.633 7.59zm0 0" fill-opacity=".2"/><path d="m97.285 50.492 30.715-30.754-19.785-19.738-30.703 30.691-30.555-30.535-19.773 19.801 80.82 80.922 19.777-19.8zm0 0" fill="#53b9ff"/><path d="m57.68 50.492 19.828-19.8-30.551-30.537-19.773 19.802zm0 0" fill="#119eff"/><path d="m57.68 50.492 19.828-19.8-7.633-7.594zm0 0" fill-opacity=".2"/></svg>

<svg xmlns="http://www.w3.org/2000/svg" viewBox="0 0 128 128"><path fill="#53b9ff" d="M19.93 27.059.156 46.859l30.496 30.59L0 108.191l19.715 19.813L50.43 97.25l30.547 30.531 19.777-19.8zm0 0"/><path fill="#119eff" d="M70.258 77.45 50.43 97.25l30.547 30.531 19.777-19.8zm0 0"/><path fill-opacity=".2" d="M70.258 77.45 50.43 97.25l7.633 7.59zm0 0"/><path fill="#53b9ff" d="M97.285 50.492 128 19.738 108.215 0 77.512 30.691 46.957.156 27.184 19.957l80.82 80.922 19.777-19.8zm0 0"/><path fill="#119eff" d="m57.68 50.492 19.828-19.8L46.957.155 27.184 19.957zm0 0"/><path fill-opacity=".2" d="m57.68 50.492 19.828-19.8-7.633-7.594zm0 0"/></svg>
